X: 393
T: Maggy Shanks
R: reel
M: C
L: 1/8
Z: 2012 John Chambers <jc:trillian.mit.edu>
B: J. Anderson "Budget of Strathspeys, Reels and Country Dances" (Early 1800s) p.39 #3
F: http://imslp.org/wiki/Anderson%27s_Budget_of_Strathspeys,_Reels_and_Country_Dances_(Various)
K: Ddor
g | adaf gcge | adag adag | adaf gcge | faef d2d :|
e | cAAc GAcG | A/A/A A/A/A aged | cAAc GAcG | AcEc D2D ||
e | cAAc GAcG | cAAg abed | cAAc GAcd | (e/d/c/A/) (cE) E2D |]

%%sep 2 1 500
%%sep 1 1 500

